svg/300/outlined/mitre-fill.svg

<svg xmlns="http://www.w3.org/2000/svg" width="48" height="48" viewBox="0 -960 960 960"><path d="M550.001-385.001v-189.998h92.307v-137.31h-92.307v-189.997h229.998v189.997h-92.308v137.31h92.308v189.998H550.001Zm-370 327.307V-247.69h92.308V-385h-92.308v-189.998h92.308v-137.31h-92.308v-189.997h229.998v189.997h-92.307v137.31h92.307V-385h-92.307v137.31h92.307v189.997H180.001Z"/></svg>

<svg xmlns="http://www.w3.org/2000/svg" width="48" height="48" viewBox="0 -960 960 960"><path d="M550-385v-190h92.31v-137.31H550v-190h230v190h-92.31V-575H780v190H550ZM180-57.69v-190h92.31V-385H180v-190h92.31v-137.31H180v-190h230v190h-92.31V-575H410v190h-92.31v137.31H410v190H180Z"/></svg>
